packages/kaspersky-hexa-ui-icons/src/iconsSVGs/16/OfficialBlog.svg

<svg width="16" height="16" viewBox="0 0 16 16" fill="none" xmlns="http://www.w3.org/2000/svg">
<path d="M9.10567 7.90948C9.10567 6.84826 8.45888 5.9381 7.538 5.55171V10.2673C8.45888 9.88086 9.10567 8.9707 9.10567 7.90948Z" fill="black"/>
<path fill-rule="evenodd" clip-rule="evenodd" d="M12.5948 13.271H14.6665L11.726 9.25529L14.5774 5.54847H12.528L10.0775 8.76987V9.78484L12.5948 13.271ZM9.20875 13.271V2.68009H7.538V5.55171C8.45888 5.9381 9.10567 6.84826 9.10567 7.90948C9.10567 8.9707 8.45888 9.88086 7.538 10.2673V13.271H9.20875ZM6.74601 12.1275C6.681 12.1304 6.61561 12.132 6.54986 12.132C4.21786 12.132 2.32739 10.2415 2.32739 7.90948C2.32739 5.57748 4.21786 3.68701 6.54986 3.68701C6.61561 3.68701 6.681 3.68851 6.74601 3.69149V5.36109C6.68127 5.35618 6.61586 5.35368 6.54986 5.35368C5.13833 5.35368 3.99406 6.49795 3.99406 7.90948C3.99406 9.32101 5.13833 10.4653 6.54986 10.4653C6.61586 10.4653 6.68127 10.4628 6.74601 10.4579V12.1275Z" fill="black"/>
<path d="M7.53768 2.62646H9.20623V13.2058H7.53768V2.62646Z" fill="black"/>
<path d="M3.53566 9.89665L1.33325 12.0989L2.60792 13.3736L4.81033 11.1713L3.53566 9.89665Z" fill="black"/>
</svg>

<svg xmlns="http://www.w3.org/2000/svg" width="16" height="16" fill="none" viewBox="0 0 16 16"><path fill="#000" d="M9.1057 7.9095c0-1.0612-.6468-1.9714-1.5677-2.3578v4.7156c.9209-.3864 1.5677-1.2966 1.5677-2.3578"/><path fill="#000" fill-rule="evenodd" d="M12.5948 13.271h2.0717L11.726 9.2553l2.8514-3.7068H12.528l-2.4505 3.2214v1.015zm-3.386 0V2.68H7.538v2.8717c.9209.3864 1.5677 1.2966 1.5677 2.3578s-.6468 1.9714-1.5677 2.3578v3.0037zM6.746 12.1275a4.4 4.4 0 0 1-.1961.0045c-2.332 0-4.2225-1.8905-4.2225-4.2225S4.2179 3.687 6.5499 3.687q.0986 0 .1961.0045V5.361a2.6 2.6 0 0 0-.1961-.0074c-1.4116 0-2.5558 1.1443-2.5558 2.5558s1.1442 2.5558 2.5558 2.5558q.099 0 .1961-.0074z" clip-rule="evenodd"/><path fill="#000" d="M7.538 2.627h1.669v10.579H7.538zm-4.002 7.27-2.202 2.202 1.275 1.275 2.202-2.202z"/></svg>
